germany-cool.svg

<svg height="512pt" viewBox="0 0 512 512" width="512pt" xmlns="http://www.w3.org/2000/svg"><path d="m398.71 20.13c19.35 10.66 35.68 28.79 39.72 51.03 2.03 9.17 1.63 18.6 1.47 27.92-.7 9.75-3.44 19.23-4.17 28.98-1.27 7.1-.87 14.64 1.84 21.36 2.66 5.96 9.22 8.74 15.35 9.43 7.26-.02 13.58-4.56 17.79-10.18 4.84-6.51 7.64-14.28 9.66-22.06 1.27-5.08 1.4-10.38 3.06-15.36 8.38 28.77 7.24 60.34-4.42 88.05-4.97 11.74-11.6 22.85-20.14 32.34.79-16.46-2.13-33.15-9.53-47.94-.05 7.16-1.41 14.82-6.54 20.19-3.69 4.15-9.25 6.8-14.88 5.99-6.47-.88-11.69-6.56-12.61-12.95-2.18-13-1.44-26.81-7.29-38.97-5.6-12.58-16.97-21.96-29.89-26.32 3.44 11.61 5.54 23.92 3.38 35.98-1.69 8.96-6.5 17.58-14.19 22.71-5.16 3.55-11.68 5.34-17.9 4.19-4.36-.92-7.76-4.33-9.68-8.21-3.08-6.12-3.69-13.07-4.15-19.79-11.89 13.39-18.96 30.73-20.82 48.46-.64 5.51-.45 11.07-.53 16.6-8.57-9.45-15.11-20.63-20.07-32.35-16.87-40.13-12.08-89.17 13.91-124.37-3.03 13.35-4.87 27.61-.93 40.98 1.92 6.25 5.77 12.77 12.38 14.83 6.83 1.55 14.76-.05 19.41-5.61 6.93-7.72 6.31-19.31 3.51-28.63-2.85-8-4.03-16.54-3.72-25.02.56-13.92 6.07-28.07 16.88-37.21-2.18 12.46-1.53 26.37 6.06 36.98 4.82 6.76 12.83 11.67 21.34 10.97 7.38-.02 13.83-4.88 17.55-10.98 9.37-15.7 5.18-35.29-1.85-51.04z" fill="#f48f0b"/><g fill="#141414"><path d="m15.76 88.76c10.56-11.17 25.82-17.71 41.2-17.61 92.35-.04 184.71.01 277.07-.03 1.57.03 3.14.16 4.7.29-.31 8.48.87 17.02 3.72 25.02 2.8 9.32 3.42 20.91-3.51 28.63-4.65 5.56-12.58 7.16-19.41 5.61-6.61-2.06-10.46-8.58-12.38-14.83-3.94-13.37-2.1-27.63.93-40.98-25.99 35.2-30.78 84.24-13.91 124.37-98.05.03-196.11-.06-294.17.05v-72.73c.41-13.96 6.03-27.73 15.76-37.79z"/><path d="m361.67 71.18c12.96-.09 25.93-.06 38.89-.01-3.72 6.1-10.17 10.96-17.55 10.98-8.51.7-16.52-4.21-21.34-10.97z"/><path d="m438.43 71.16c9.96.19 20.09-.85 29.88 1.53 10.4 2.43 20.04 7.93 27.48 15.59 9.73 9.85 15.42 23.35 16.21 37.13v73.71c-10.99.3-21.99-.05-32.99.18 11.66-27.71 12.8-59.28 4.42-88.05-1.66 4.98-1.79 10.28-3.06 15.36-2.02 7.78-4.82 15.55-9.66 22.06-4.21 5.62-10.53 10.16-17.79 10.18-6.13-.69-12.69-3.47-15.35-9.43-2.71-6.72-3.11-14.26-1.84-21.36.73-9.75 3.47-19.23 4.17-28.98.16-9.32.56-18.75-1.47-27.92z"/></g><path d="m378.13 131.64c12.92 4.36 24.29 13.74 29.89 26.32 5.85 12.16 5.11 25.97 7.29 38.97.92 6.39 6.14 12.07 12.61 12.95 5.63.81 11.19-1.84 14.88-5.99 5.13-5.37 6.49-13.03 6.54-20.19 7.4 14.79 10.32 31.48 9.53 47.94-14.48 16.41-34.14 28.6-55.81 32.48-4.33.66-8.69 1.07-13.02 1.76-4.71.7-9.38-.44-14.04-.99-23.99-2.31-45.93-15.51-61.76-33.31.08-5.53-.11-11.09.53-16.6 1.86-17.73 8.93-35.07 20.82-48.46.46 6.72 1.07 13.67 4.15 19.79 1.92 3.88 5.32 7.29 9.68 8.21 6.22 1.15 12.74-.64 17.9-4.19 7.69-5.13 12.5-13.75 14.19-22.71 2.16-12.06.06-24.37-3.38-35.98z" fill="#fecb4c"/><path d="m0 199.28c98.06-.11 196.12-.02 294.17-.05 4.96 11.72 11.5 22.9 20.07 32.35 15.83 17.8 37.77 31 61.76 33.31 4.66.55 9.33 1.69 14.04.99 4.33-.69 8.69-1.1 13.02-1.76 21.67-3.88 41.33-16.07 55.81-32.48 8.54-9.49 15.17-20.6 20.14-32.34 11-.23 22 .12 32.99-.18v127.96c-21.32.44-42.67.06-64 .19-149.17-.02-298.34.03-447.51-.02l-.49.76z" fill="#ed1f24"/><path d="m0 328.01.49-.76c149.17.05 298.34 0 447.51.02 21.33-.13 42.68.25 64-.19v59.21c-.72 15.11-7.51 29.85-18.83 39.93-10.56 9.64-24.86 14.92-39.14 14.66-132.35-.02-264.71-.01-397.06-.01-15.84.08-31.52-6.87-42.13-18.63-9.19-9.98-14.46-23.34-14.84-36.89z" fill="#ffcd05"/></svg>

<?xml version="1.0" encoding="UTF-8" ?>
<!DOCTYPE svg PUBLIC "-//W3C//DTD SVG 1.1//EN" "http://www.w3.org/Graphics/SVG/1.1/DTD/svg11.dtd">
<svg width="512pt" height="512pt" viewBox="0 0 512 512" version="1.1" xmlns="http://www.w3.org/2000/svg">
<g id="#f48f0bff">
<path fill="#f48f0b" opacity="1.00" d=" M 398.71 20.13 C 418.06 30.79 434.39 48.92 438.43 71.16 C 440.46 80.33 440.06 89.76 439.90 99.08 C 439.20 108.83 436.46 118.31 435.73 128.06 C 434.46 135.16 434.86 142.70 437.57 149.42 C 440.23 155.38 446.79 158.16 452.92 158.85 C 460.18 158.83 466.50 154.29 470.71 148.67 C 475.55 142.16 478.35 134.39 480.37 126.61 C 481.64 121.53 481.77 116.23 483.43 111.25 C 491.81 140.02 490.67 171.59 479.01 199.30 C 474.04 211.04 467.41 222.15 458.87 231.64 C 459.66 215.18 456.74 198.49 449.34 183.70 C 449.29 190.86 447.93 198.52 442.80 203.89 C 439.11 208.04 433.55 210.69 427.92 209.88 C 421.45 209.00 416.23 203.32 415.31 196.93 C 413.13 183.93 413.87 170.12 408.02 157.96 C 402.42 145.38 391.05 136.00 378.13 131.64 C 381.57 143.25 383.67 155.56 381.51 167.62 C 379.82 176.58 375.01 185.20 367.32 190.33 C 362.16 193.88 355.64 195.67 349.42 194.52 C 345.06 193.60 341.66 190.19 339.74 186.31 C 336.66 180.19 336.05 173.24 335.59 166.52 C 323.70 179.91 316.63 197.25 314.77 214.98 C 314.13 220.49 314.32 226.05 314.24 231.58 C 305.67 222.13 299.13 210.95 294.17 199.23 C 277.30 159.10 282.09 110.06 308.08 74.86 C 305.05 88.21 303.21 102.47 307.15 115.84 C 309.07 122.09 312.92 128.61 319.53 130.67 C 326.36 132.22 334.29 130.62 338.94 125.06 C 345.87 117.34 345.25 105.75 342.45 96.43 C 339.60 88.43 338.42 79.89 338.73 71.41 C 339.29 57.49 344.80 43.34 355.61 34.20 C 353.43 46.66 354.08 60.57 361.67 71.18 C 366.49 77.94 374.50 82.85 383.01 82.15 C 390.39 82.13 396.84 77.27 400.56 71.17 C 409.93 55.47 405.74 35.88 398.71 20.13 Z" />
</g>
<g id="#141414ff">
<path fill="#141414" opacity="1.00" d=" M 15.76 88.76 C 26.32 77.59 41.58 71.05 56.96 71.15 C 149.31 71.11 241.67 71.16 334.03 71.12 C 335.60 71.15 337.17 71.28 338.73 71.41 C 338.42 79.89 339.60 88.43 342.45 96.43 C 345.25 105.75 345.87 117.34 338.94 125.06 C 334.29 130.62 326.36 132.22 319.53 130.67 C 312.92 128.61 309.07 122.09 307.15 115.84 C 303.21 102.47 305.05 88.21 308.08 74.86 C 282.09 110.06 277.30 159.10 294.17 199.23 C 196.12 199.26 98.06 199.17 0.00 199.28 L 0.00 126.55 C 0.41 112.59 6.03 98.82 15.76 88.76 Z" />
<path fill="#141414" opacity="1.00" d=" M 361.67 71.18 C 374.63 71.09 387.60 71.12 400.56 71.17 C 396.84 77.27 390.39 82.13 383.01 82.15 C 374.50 82.85 366.49 77.94 361.67 71.18 Z" />
<path fill="#141414" opacity="1.00" d=" M 438.43 71.16 C 448.39 71.35 458.52 70.31 468.31 72.69 C 478.71 75.12 488.35 80.62 495.79 88.28 C 505.52 98.13 511.21 111.63 512.00 125.41 L 512.00 199.12 C 501.01 199.42 490.01 199.07 479.01 199.30 C 490.67 171.59 491.81 140.02 483.43 111.25 C 481.77 116.23 481.64 121.53 480.37 126.61 C 478.35 134.39 475.55 142.16 470.71 148.67 C 466.50 154.29 460.18 158.83 452.92 158.85 C 446.79 158.16 440.23 155.38 437.57 149.42 C 434.86 142.70 434.46 135.16 435.73 128.06 C 436.46 118.31 439.20 108.83 439.90 99.08 C 440.06 89.76 440.46 80.33 438.43 71.16 Z" />
</g>
<g id="#fecb4cff">
<path fill="#fecb4c" opacity="1.00" d=" M 378.13 131.64 C 391.05 136.00 402.42 145.38 408.02 157.96 C 413.87 170.12 413.13 183.93 415.31 196.93 C 416.23 203.32 421.45 209.00 427.92 209.88 C 433.55 210.69 439.11 208.04 442.80 203.89 C 447.93 198.52 449.29 190.86 449.34 183.70 C 456.74 198.49 459.66 215.18 458.87 231.64 C 444.39 248.05 424.73 260.24 403.06 264.12 C 398.73 264.78 394.37 265.19 390.04 265.88 C 385.33 266.58 380.66 265.44 376.00 264.89 C 352.01 262.58 330.07 249.38 314.24 231.58 C 314.32 226.05 314.13 220.49 314.77 214.98 C 316.63 197.25 323.70 179.91 335.59 166.52 C 336.05 173.24 336.66 180.19 339.74 186.31 C 341.66 190.19 345.06 193.60 349.42 194.52 C 355.64 195.67 362.16 193.88 367.32 190.33 C 375.01 185.20 379.82 176.58 381.51 167.62 C 383.67 155.56 381.57 143.25 378.13 131.64 Z" />
</g>
<g id="#ed1f24ff">
<path fill="#ed1f24" opacity="1.00" d=" M 0.00 199.28 C 98.06 199.17 196.12 199.26 294.17 199.23 C 299.13 210.95 305.67 222.13 314.24 231.58 C 330.07 249.38 352.01 262.58 376.00 264.89 C 380.66 265.44 385.33 266.58 390.04 265.88 C 394.37 265.19 398.73 264.78 403.06 264.12 C 424.73 260.24 444.39 248.05 458.87 231.64 C 467.41 222.15 474.04 211.04 479.01 199.30 C 490.01 199.07 501.01 199.42 512.00 199.12 L 512.00 327.08 C 490.68 327.52 469.33 327.14 448.00 327.27 C 298.83 327.25 149.66 327.30 0.49 327.25 L 0.00 328.01 L 0.00 199.28 Z" />
</g>
<g id="#ffcd05ff">
<path fill="#ffcd05" opacity="1.00" d=" M 0.00 328.01 L 0.49 327.25 C 149.66 327.30 298.83 327.25 448.00 327.27 C 469.33 327.14 490.68 327.52 512.00 327.08 L 512.00 386.29 C 511.28 401.40 504.49 416.14 493.17 426.22 C 482.61 435.86 468.31 441.14 454.03 440.88 C 321.68 440.86 189.32 440.87 56.97 440.87 C 41.13 440.95 25.45 434.00 14.84 422.24 C 5.65 412.26 0.38 398.90 0.00 385.35 L 0.00 328.01 Z" />
</g>
</svg>
